X: 145
T: Willie Coleman's
T:Mice in the Cupboard
C:Willie Coleman
R: jig
M: 6/8
L: 1/8
K:Gmaj
A|:"G"B2 G "C"AGE |"G" GED GBd |"Em" edB "G"dgb |"C" age "D"dBA |
"G"B2 G "C"AGE |"G" GED GBd |"Em" edB "D"dBA |1 AGF "G"G2A:|2"D" AGF "G"GBd||
|: "G"~g3 "Em"edB | "G"dgb "C(Am)"age| "G"gfg "Em"edB | "G"GBd "C"e2 f |
"G"gfg "Em"edB | "G"dgb "C(Am)"age | "G"dBd gdB | "D"AGF "G"GBd:|


